icons/paw-outline.svg

<svg xmlns="http://www.w3.org/2000/svg" width="24" height="24" viewBox="0 0 24 24">
  <path d="M12,10.5 C14.0968377,10.5 15.4916413,11.7450294 16.2779793,13.7162263 L16.2779793,13.7162263 L16.29,13.749 L16.3780134,13.7936318 C17.8323437,14.5668522 18.9107827,16.3064689 18.9947309,17.8129862 L18.9947309,17.8129862 L19,18 C19,18.7345119 18.9803843,19.1595185 18.8896223,19.6889638 C18.6585611,21.0368205 18.0280799,22.0447326 16.8162278,22.4486833 C16.1911903,22.6570291 15.5954846,22.6871153 14.9467121,22.5789865 C14.7500307,22.5462063 14.5519103,22.501851 14.3212855,22.4415569 L14.3212855,22.4415569 L13.4884739,22.2135337 C12.9081088,22.0629302 12.4976844,22 12,22 C11.4312179,22 10.9764078,22.0821946 10.2516439,22.2835179 L10.2516439,22.2835179 L9.76750851,22.4180071 L9.45777391,22.4966997 C9.3161693,22.5301351 9.18440879,22.557133 9.05328788,22.5789865 C8.40451541,22.6871153 7.80880968,22.6570291 7.18377223,22.4486833 C5.48731852,21.8831987 5.0190167,20.4367521 5.00077243,18.2608977 L5.00077243,18.2608977 L5,18 C5,16.2780057 6.04888698,14.580937 7.60328843,13.793834 L7.60328843,13.793834 L7.712,13.741 L7.81545766,13.4920326 C8.58464055,11.724737 9.87534572,10.5931917 11.7611674,10.5054958 L11.7611674,10.5054958 Z M11.9999956,12.5 C10.7581329,12.5 9.95207238,13.3060605 9.4486833,14.8162278 C9.3491483,15.1148328 9.11483276,15.3491483 8.81622777,15.4486833 L8.81622777,15.4486833 L8.65469639,15.5096114 C7.69928178,15.9125274 6.99999557,16.9747452 6.99999557,17.9970223 L6.99999557,17.9970223 L7.00073279,18.2495287 C7.01214601,19.6096041 7.25664484,20.3647891 7.81622777,20.5513167 C8.11182525,20.6498492 8.3810143,20.6634446 8.7244899,20.6061987 C8.83992022,20.5869603 8.89994014,20.5767385 9.02507579,20.5452227 L9.02507579,20.5452227 L10.0360709,20.2706581 C10.7565341,20.0849146 11.312351,20 11.9999956,20 C12.7858845,20 13.3995803,20.1109089 14.2836439,20.3564821 L14.2836439,20.3564821 L15.0249185,20.5575141 L15.2755101,20.6061987 C15.6189857,20.6634446 15.8881748,20.6498492 16.1837722,20.5513167 C16.5628878,20.4249448 16.7989811,20.0475168 16.9183777,19.3510362 C16.9677799,19.062857 16.9889913,18.7988258 16.9965094,18.4209436 L16.9965094,18.4209436 L16.9999956,18 C16.9999956,17.0951827 16.1263858,15.7628878 15.1837722,15.4486833 L15.1837722,15.4486833 L15.0749466,15.4051775 C14.8286943,15.2895649 14.6384098,15.0775071 14.5513167,14.8162278 C14.0479276,13.3060605 13.2418671,12.5 11.9999956,12.5 Z M18.5349365,9.40358984 C19.2956553,8.08598627 20.5910275,7.58845313 22,8.40192379 C23.4089725,9.21539444 23.6257823,10.5859863 22.8650635,11.9035898 C21.9978792,13.4055971 20.4744582,14.449355 19,13.5980762 C17.5255418,12.7467974 17.6677522,10.9055971 18.5349365,9.40358984 Z M2,8.40192379 C3.40897251,7.58845313 4.70434474,8.08598627 5.46506351,9.40358984 C6.33224779,10.9055971 6.47445816,12.7467974 5,13.5980762 C3.52554184,14.449355 2.00212077,13.4055971 1.13493649,11.9035898 C0.374217718,10.5859863 0.591027494,9.21539444 2,8.40192379 Z M20.9205281,10.0903188 C20.6183963,9.93432554 20.4972715,10.0047258 20.2669873,10.4035898 C20.0851192,10.7185946 19.9421435,11.1384912 19.9164715,11.4708669 C19.8962997,11.7320316 19.9331246,11.8274149 20,11.8660254 C20.0668754,11.9046359 20.1678922,11.8888356 20.3839816,11.740784 C20.6589914,11.5523635 20.9511446,11.2185946 21.1330127,10.9035898 C21.3824873,10.4714872 21.3621743,10.343076 21,10.1339746 L21,10.1339746 Z M3.7330127,10.4035898 C3.48353811,9.97148718 3.36217432,9.92487316 3,10.1339746 L3,10.1339746 L2.92245705,10.1809714 C2.63629698,10.3646286 2.63670306,10.5047258 2.8669873,10.9035898 C3.04885541,11.2185946 3.34100862,11.5523635 3.61601844,11.740784 C3.8321078,11.8888356 3.93312458,11.9046359 4,11.8660254 C4.06687542,11.8274149 4.10370031,11.7320316 4.08352851,11.4708669 C4.05785652,11.1384912 3.91488081,10.7185946 3.7330127,10.4035898 Z M7.42303261,2.13629669 C9.66114914,1.53659518 10.6203263,2.53240489 11.2704395,4.9062008 L11.2704395,4.9062008 L11.3560863,5.22354286 C11.9109654,7.29438007 11.1961184,9.40751085 9.49358497,9.86370331 C7.79105156,10.3198958 6.11541047,8.84729434 5.56053131,6.77645714 C4.83171306,4.0564704 5.05193171,2.77163127 7.42303261,2.13629669 Z M12.8105313,5.22354286 C13.5393496,2.50355613 14.3724841,1.50096212 16.743585,2.13629669 C18.9817015,2.73599821 19.3144684,4.07798329 18.690585,6.45880747 L18.690585,6.45880747 L18.6060863,6.77645714 C18.0512071,8.84729434 16.375566,10.3198958 14.6730326,9.86370331 C12.9704992,9.40751085 12.2556522,7.29438007 12.8105313,5.22354286 Z M9.3405019,5.43091695 C8.9434609,3.98119418 8.80431614,3.83673525 7.94067228,4.06814792 L7.94067228,4.06814792 L7.84475172,4.09460761 C7.13640183,4.29664381 7.04649712,4.49484847 7.35279735,5.72326012 L7.35279735,5.72326012 L7.49238455,6.25881862 C7.79515626,7.38877803 8.54461588,8.04742645 8.97594847,7.93185123 C9.40727788,7.81627686 9.72700791,6.87113994 9.4247054,5.74293161 L9.4247054,5.74293161 Z M16.129649,4.04310325 C15.4151819,3.86389679 15.2382198,3.9905947 14.8892777,5.20758051 L14.8892777,5.20758051 L14.7423845,5.74118138 C14.4396128,6.87114079 14.7593397,7.81627686 15.1906723,7.93185208 C15.6220017,8.04742645 16.3714645,7.38877888 16.673767,6.26057055 L16.673767,6.26057055 L16.756852,5.94825618 C17.1378658,4.49423894 17.0895923,4.29956145 16.2259485,4.06814877 L16.2259485,4.06814877 Z"/>
</svg>

<svg xmlns="http://www.w3.org/2000/svg" viewBox="0 0 24 24">
  <path d="M12 10.5c2.1 0 3.5 1.25 4.28 3.22l.01.03.09.04a5.24 5.24 0 0 1 2.61 4.02L19 18c0 .73-.02 1.16-.11 1.69-.23 1.35-.86 2.35-2.07 2.76-.63.2-1.22.24-1.87.13-.2-.03-.4-.08-.63-.14l-.83-.23a5.5 5.5 0 0 0-3.24.07l-.48.14-.31.08-.4.08c-.66.1-1.25.08-1.88-.13-1.7-.57-2.16-2.01-2.18-4.19V18a4.84 4.84 0 0 1 2.6-4.2l.11-.06.1-.25c.77-1.77 2.07-2.9 3.95-2.98zm0 2c-1.24 0-2.05.8-2.55 2.32a1 1 0 0 1-.63.63l-.17.06A2.83 2.83 0 0 0 7 18v.25c.01 1.36.26 2.11.82 2.3.3.1.56.11.9.06l.3-.06 1.02-.28a7.33 7.33 0 0 1 4.24.09l.74.2.26.05c.34.05.6.04.9-.06.38-.13.62-.5.74-1.2.05-.29.07-.55.08-.93V18c0-.9-.87-2.24-1.82-2.55l-.1-.04a1 1 0 0 1-.53-.6c-.5-1.5-1.3-2.31-2.55-2.31zm6.53-3.1c.77-1.3 2.07-1.8 3.47-1 1.4.82 1.63 2.19.87 3.5-.87 1.5-2.4 2.55-3.87 1.7-1.47-.85-1.33-2.7-.47-4.2zM2 8.4c1.4-.81 2.7-.31 3.47 1 .86 1.5 1 3.35-.47 4.2-1.47.85-3-.2-3.87-1.7C.37 10.6.6 9.22 2 8.4zm18.92 1.69c-.3-.16-.42-.09-.65.31-.18.32-.33.74-.35 1.07-.02.26.01.36.08.4.07.03.17.02.38-.13.28-.19.57-.52.75-.84.25-.43.23-.56-.13-.77zm-17.19.31c-.25-.43-.37-.48-.73-.27l-.08.05c-.28.18-.28.32-.05.72.18.32.47.65.75.84.21.15.31.16.38.13.07-.04.1-.14.08-.4a2.76 2.76 0 0 0-.35-1.07zm3.7-8.26c2.23-.6 3.19.4 3.84 2.77l.09.31c.55 2.07-.16 4.19-1.87 4.64-1.7.46-3.37-1.01-3.93-3.08-.73-2.72-.5-4 1.86-4.64zm5.38 3.08c.73-2.72 1.56-3.72 3.93-3.08 2.24.6 2.57 1.94 1.95 4.32l-.08.32c-.56 2.07-2.23 3.54-3.94 3.08-1.7-.45-2.41-2.57-1.86-4.64zm-3.47.21c-.4-1.45-.54-1.6-1.4-1.36l-.1.02c-.7.2-.8.4-.49 1.63l.14.54c.3 1.13 1.05 1.79 1.49 1.67.43-.11.75-1.06.44-2.19zm6.79-1.39c-.71-.18-.9-.05-1.24 1.17l-.15.53c-.3 1.13.02 2.08.45 2.2.43.1 1.18-.55 1.48-1.68l.09-.31c.38-1.46.33-1.65-.53-1.88z"/>
</svg>
